!!!COM:	Bach, Johann Sebastian
!!!CDT:	1685/02/21/-1750/07/28/
!!!OTL@@DE:	Verleih uns Frieden gn&auml;diglich
!!!SCT:	BWV 42/7
!!!PC#:	91
!!!AGN:	chorale
**harm	**kern	**kern	**kern	**kern
*	*ICvox	*ICvox	*ICvox	*ICvox
*	*Ibass	*Itenor	*Ialto	*Isoprn
*	*I"Bass	*I"Tenor	*I"Alto	*I"Soprano
*	*	*oclefC4	*oclefC3	*oclefC1
*	*clefF4	*clefGv2	*clefG2	*clefG2
*k[f#c#g#]	*k[f#c#g#]	*k[f#c#g#]	*k[f#c#g#]	*k[f#c#g#]
*f#:	*f#:	*f#:	*f#:	*f#:
*M4/4	*M4/4	*M4/4	*M4/4	*M4/4
*met(c)	*met(c)	*met(c)	*met(c)	*met(c)
*MM100	*MM100	*MM100	*MM100	*MM100
i	4F#	4A	4c#	4f#
=1	=1	=1	=1	=1
VI	4D	4A	4d	4f#
iv7	4BB	4A	4d	4f#
V7	4C#	4B	4c#	4e#
vi%7	8D#L	8AL	8c#L	8f#L
V6	8E#J	8G#J	8c#J	8g#J
=2	=2	=2	=2	=2
i	4F#	4F#	4c#	4a
V7	4C#	4B	4e#	4g#
i;	4FF#;	4A;	4c#;	4f#;
i	4F#	4c#	4f#	4a
=3	=3	=3	=3	=3
A:V6	4G#	4B	4enX	4b
V	4E	4e	4g#	4b
I	4A	4e	4a	4cc#
I64	4E	4c#	4a	4a
=4	=4	=4	=4	=4
ii65	4D	4B	4a	4b
V	4E	4e	4g#	4b
I;	4AA;	4e;	4a;	4cc#;
I	4A	4e	4a	4cc#
=5	=5	=5	=5	=5
vi7	4F#	4e	4a	4cc#
f#:viio65	4G#	4d	4e#	4b
V65	4E#	4c#	4g#	4b
i	4F#	4c#	4f#	4a
=6	=6	=6	=6	=6
E:V65	4D#	4B	4f#	4a
I	4E	4B	4enX	4g#
V;	4BB;	4B;	4d#;	4f#;
I	4B	4B	4d#	4f#
=7	=7	=7	=7	=7
f#:i	4F#	4c#	4f#	4a
VI	4D	4d	4f#	4a
iio6	4BB	4d	4g#	4b
V7	4C#	4B	4e#	4g#
=8	=8	=8	=8	=8
VI	4D	4A	4f#	4f#
iv	4BB	4B	4d	4f#
i;	4F#;	4A;	4c#;	4f#;
A:V	4E	4G#	4e	4b
=9	=9	=9	=9	=9
I	4A	4A	4e	4cc#
V6	4G#	4B	4e	4b
f#:iv	4B	4d	4d	4f#
i6	4A	4c#	4f#	4a
=10	=10	=10	=10	=10
V	4c#	4c#	4e#	4g#
V7	4C#	4B	4e#	4g#
i;	4F#;	4A;	4c#;	4f#;
i	4FF#	4A	4c#	4f#
=11	=11	=11	=11	=11
i6	4AA	4A	4c#	4f#
v	4C#	4G#	4enX	4enX
VI	4D	4F#	4d	4a
viio6/III	4BB	4G#	4d	4b
=12	=12	=12	=12	=12
III	8AAL	8AL	8c#L	8cc#L
V65	8E#J	8G#J	8c#J	8bJ
i	4F#	4A	4c#	4a
A:ii65	4D	4A	4f#	4b
V	4E	4G#	4e	4b
=13	=13	=13	=13	=13
I;	2AA;	2A;	2e;	2cc#;
viio6	2BB	2G#	2b	2dd
=14	=14	=14	=14	=14
I6	4C#	4A	4e	4cc#
ii65	4D	4A	4f#	4b
V	4E	4G#	4e	4b
V7	4EE	4d	4e	4b
=15	=15	=15	=15	=15
I;	2.AA;	2.c#;	2.e;	2.a;
f#:V6	4E#	4c#	4g#	4cc#
=16	=16	=16	=16	=16
i	2F#	2f#	2a	2cc#
vi%7/iv	8G#L	8dL	8f#L	8bL
V6/iv	8A#J	8c#J	8f#J	8cc#J
iv	8BL	8BL	8f#L	8ddL
viio43	8BJ	8G#J	8e#J	8ddJ
=17	=17	=17	=17	=17
i;	2F#;	2AnX;	2f#;	2cc#;
A:V	4EnX	4B	4g#	4eenX
V(64)	4E	4e	4a	4cc#
=18	=18	=18	=18	=18
V7	4E	4e	4g#	4dd
V(64)	8EL	8eL	8aL	8cc#L
V7	8EJ	8dJ	8g#J	8bJ
V(64)	4E	4c#	4a	4cc#
V(64)	4E	4A	4cc#	4cc#
=19	=19	=19	=19	=19
V7	4E	4G#	4b	4dd
vi	4F#	4A	4a	4cc#
V65	4G#	4B	4e	4dd
I	4A	4A	4e	4cc#
=20	=20	=20	=20	=20
ii65	4D	4A	4f#	4b
V7	4E	4G#	4d	4b
I;	2AA;	2E;	2c#;	2a;
=21	=21	=21	=21	=21
I	4AA	4A	4e	4cc#
I6	4C#	4A	4e	4cc#
IV	4D	4A	4f#	4a
ii6	4D	4d	4f#	4b
=22	=22	=22	=22	=22
vi	4F#	4c#	4f#	4a
V6	4G#	4B	4e	4g#
ii;	2B;	2B;	2d;	2f#;
=23	=23	=23	=23	=23
iii	4.C#	4.G#	4.c#	4.e
viio6	8BB	8B	8d	8g#
I	4AA	4c#	4e	4a
ii	4BB	4B	4d	4f#
=24	=24	=24	=24	=24
IV;	2.D;	2.A;	2.d;	2.f#;
I	4AA	4A	4c#	4e
=25	=25	=25	=25	=25
vi6	4AA	4F#	4c#	4f#
f#:V65	4EE#	4B	4c#	4g#
i	4FF#	4A	4c#	4a
iio6	4BB	4B	4d	4g#
=26	=26	=26	=26	=26
VI	4D	4A	4f#	4f#
ii%65	4BB	4G#	4g#	4f#
ii%65	4BB	4G#	4d	4f#
V7	4C#	4B	4c#	4e#
=27	=27	=27	=27	=27
I;	2.FF#;	2.A#;	2.c#;	2.f#;
==	==	==	==	==
*-	*-	*-	*-	*-
!!!YOR1: 371 vierstimmige Choralges&auml;nge von Johann Sebastian Bach, 
!!!YOR2: 4th ed. by Alfred D&ouml;rffel (Leipzig: Breitkopf und H&auml;rtel, 
!!!YOR2: c.1875). 178 pp. Plate "V.A.10".  reprint: J.S. Bach, 371 Four-Part 
!!!YOR4: Chorales (New York: Associated Music Publishers, Inc., c.1940).
!!!SMS: B&H, 4th ed, Alfred D&ouml;rffel, c.1875, plate V.A.10
!!!EED:  Craig Stuart Sapp
!!!EEV:  2009/05/22
